X:1
T:Bist Du Bei Mir
T:Bist Du Bei Mir, BWV 508
T:Johann Sebastian Bach
%%score 1 2 3
L:1/8
Q:1/4=68
M:3/4
K:Eb
V:1 treble nm="Organ"
V:2 treble nm="Organ"
V:3 bass nm="Pedals"
V:1
!mp! B2 e3 f | d4 z2 | e2 A2 A2 | A4 G2- | GB dB =AB | FB dB =AB | E2 c3 d/e/ | d>c B>c F>=A | %8
 B4 z2 :| e2 ge _dc | c6 | a2 f3 e | d4 e2 | z e ge de | Be ge de | A2 f3 g/a/ | g>f e>f B>d | e6 | %18
 g2 e3 d | c4 z2 | f2 B3 c | =A2 GA F2 | z c ec =Bc | Gc ec =Bc | F=E F2 de/f/ | e>d c>d G>=B | %26
 c6 | F2 e3 f | d4 z2 | e2 A2 A2 | A4 G2 | z B dB =AB | FB dB =AB | ED E2 cd/e/ | d>c B>c F>=A | %35
 B6 | e2 ge _dc | c6 | a2 f3 e | d4 e2 | z e ge de | Be ge de | A2 f3 g/a/ | g>f e>f B>d | e6 |] %45
V:2
!p!"^Eb" G2"^Cm" [Gc]2"^Fm" [Ac]2 |"^Bb" [FB]4 z2 |"^Eb" [EB]2"^Bb7" [CF]2"^Ab" [CF]2 | %3
"^Bb7" [A,F]4"^Eb" [B,E]2 |"^Em7" [DG]2 [DG]2"^BbM7" [D=A]2 |"^Bb" [DF]2 [DF]2 [DF]2 | %6
"^Eb" B,2"^F" F2 [F=A]2 |"^Bb" [FB]2"^Eb" G2"^F" [CF]2 |"^Bb" [DF]2 z4 :|"^Eb" B4 [EB]2 | %10
"^Ab" [EA]4 z2 |"^Fm" [Ac]2 [Ac]4 | [FA]4 [EG]2 |"^Cm" [Gc]2 [Gc]2 [Gc]2 |"^Eb" [GB]2 [GB]2 [GB]2 | %15
 [EA]2"^Bb" B2 [Bd]2 |"^Eb" [Be]2"^Ab" c2"^Bb" F2 |"^Eb" [GB]6 |"^Cm" [ce]2 [Gc]4 |"^F" =A4 z2 | %20
"^Bb" [FB]2"^Gm" [DG]2"^Cm" [EG]2 |"^F" [CF]6 |"^Gbm" [E=A]2 [EA]2 [EA]2 |"^Cm" [EG]2 [EG]2 [EG]2 | %24
"^Ab" C4 [G=B]2 | [Gc]2 G2"^G7" D2 |"^Cm" [EG]6 |"^F" C2 [Fc]2 [F=A]2 |"^Bb" [FB]4 z2 | %29
"^Eb" [EB]2"^Bb" [CF]2"^Ab" [CF]2 |"^Bb7" [B,F]4"^Eb" [B,E]2 | [DG]2 [DG]2 [DG]2 | %32
"^Bb" [DF]2 [DF]2 [DF]2 |"^Eb" B,2"^F" C2 F2 |"^Bb" [FB]2"^Eb" F2"^F" C2 |"^Bb" [DF]6 | %36
"^Eb" B4 [EB]2 |"^Ab" [EA]6 |"^Fm" [Ac]2 [Ac]4 |"^Bb7" [FA]4"^Cm" [EG]2"^G" | %40
"^Am" [Gc]2 [Gc]2 [Gc]2 |"^Eb" [GB]2 [GB]2 [GB]2 |"^Cm" [EA]2"^Bb" B2 [Bd]2 | %43
"^Eb" [Be]2"^Ab" c2"^Bb" F2 |"^Eb" [GB]6 |] %45
V:3
!mf! E,2 C,2 F,2 | B,,2 B,2 A,2 | G,2 F,2 E,2 | D,2 B,,2 E,,2 | =E,,2 =E,,2 =E,,2 | %5
 F,,2 F,,2 F,,2 | G,,2 =A,,2 F,,2 | B,,2 E,,2 F,,2 | B,,2 B,_A, G,F, :| G,2 E,2 G,2 | A,4 G,2 | %11
 F,2 A,2 F,2 | B,,2 =B,,2 C,2 | =A,,2 =A,,2 =A,,2 | B,,2 B,,2 B,,2 | C,2 D,2 B,,2 | E,2 A,,2 B,,2 | %17
 E,,2 G,F, E,D, | C,2 C2 C,2 | F,2 F,,2 E,,2 | D,,2 G,,2 E,,2 | F,,4 z2 | ^F,,2 F,,2 F,,2 | %23
 G,,2 G,,2 G,,2 | A,4 G,,2 | C,2 E,,2 G,,2 | C,2 C2 _B,2 | =A,4 F,2 | B,,2 B,2 _A,2 | G,2 F,2 E,2 | %30
 D,2 B,,2 E,,2 | =E,,2 E,,2 E,,2 | F,,2 F,,2 F,,2 | G,,2 =A,,2 F,,2 | B,,2 D,,2 F,,2 | %35
 B,,2 B,2 _A,2 | G,2 E,2 G,2 | A,4 G,2 | F,2 A,2 F,2 | B,,2 =B,,2 C,2 | =A,,2 A,,2 A,,2 | %41
 B,,2 B,,2 B,,2 | C,2 D,2 B,,2 | E,2 A,,2 B,,2 | E,,6 |] %45

